svg/200/rounded/select_all-fill.svg

<svg xmlns="http://www.w3.org/2000/svg" width="48" height="48" viewBox="0 -960 960 960"><path d="M179.811-760q-8.58 0-14.196-5.804Q160-771.609 160-780.189t5.804-14.196Q171.608-800 180.189-800q8.58 0 14.195 5.804Q200-788.392 200-779.811q0 8.58-5.804 14.195Q188.391-760 179.811-760Zm150.398 0q-9.363 0-14.594-5.804-5.231-5.805-5.231-14.385t5.407-14.196Q321.197-800 330.175-800q8.979 0 14.594 5.804 5.616 5.804 5.616 14.385 0 8.58-5.801 14.195-5.8 5.616-14.375 5.616Zm149.602 0q-8.58 0-14.196-5.804Q460-771.609 460-780.189t5.804-14.196Q471.609-800 480.189-800t14.196 5.804Q500-788.392 500-779.811q0 8.58-5.804 14.195Q488.391-760 479.811-760Zm150.398 0q-9.363 0-14.594-5.804-5.23-5.805-5.23-14.385t5.406-14.196Q621.197-800 630.176-800q8.978 0 14.593 5.804 5.616 5.804 5.616 14.385 0 8.58-5.801 14.195-5.8 5.616-14.375 5.616Zm149.602 0q-8.58 0-14.195-5.804Q760-771.609 760-780.189t5.804-14.196Q771.609-800 780.189-800t14.196 5.804Q800-788.392 800-779.811q0 8.58-5.804 14.195Q788.392-760 779.811-760Zm-600 149.615q-8.58 0-14.196-5.406Q160-621.197 160-630.176q0-8.978 5.804-14.593 5.804-5.616 14.385-5.616 8.58 0 14.195 5.801 5.616 5.8 5.616 14.375 0 9.363-5.804 14.594-5.805 5.23-14.385 5.23Zm600 0q-8.58 0-14.195-5.406Q760-621.197 760-630.176q0-8.978 5.804-14.593 5.805-5.616 14.385-5.616t14.196 5.801q5.615 5.8 5.615 14.375 0 9.363-5.804 14.594-5.804 5.23-14.385 5.23ZM179.811-460q-8.58 0-14.196-5.804Q160-471.609 160-480.189t5.804-14.196Q171.608-500 180.189-500q8.58 0 14.195 5.804Q200-488.391 200-479.811t-5.804 14.196Q188.391-460 179.811-460Zm600 0q-8.58 0-14.195-5.804Q760-471.609 760-480.189t5.804-14.196Q771.609-500 780.189-500t14.196 5.804Q800-488.391 800-479.811t-5.804 14.196Q788.392-460 779.811-460Zm-600 149.616q-8.58 0-14.196-5.407Q160-321.197 160-330.175q0-8.979 5.804-14.594 5.804-5.616 14.385-5.616 8.58 0 14.195 5.801 5.616 5.8 5.616 14.375 0 9.363-5.804 14.594-5.805 5.231-14.385 5.231Zm600 0q-8.58 0-14.195-5.407Q760-321.197 760-330.175q0-8.979 5.804-14.594 5.805-5.616 14.385-5.616t14.196 5.801q5.615 5.8 5.615 14.375 0 9.363-5.804 14.594t-14.385 5.231ZM179.811-160q-8.58 0-14.196-5.804Q160-171.608 160-180.189q0-8.58 5.804-14.195Q171.608-200 180.189-200q8.58 0 14.195 5.804Q200-188.391 200-179.811t-5.804 14.196Q188.391-160 179.811-160Zm150.398 0q-9.363 0-14.594-5.804t-5.231-14.385q0-8.58 5.407-14.195Q321.197-200 330.175-200q8.979 0 14.594 5.804 5.616 5.805 5.616 14.385t-5.801 14.196q-5.8 5.615-14.375 5.615Zm149.602 0q-8.58 0-14.196-5.804Q460-171.608 460-180.189q0-8.58 5.804-14.195Q471.609-200 480.189-200t14.196 5.804Q500-188.391 500-179.811t-5.804 14.196Q488.391-160 479.811-160Zm150.398 0q-9.363 0-14.594-5.804-5.23-5.804-5.23-14.385 0-8.58 5.406-14.195Q621.197-200 630.176-200q8.978 0 14.593 5.804 5.616 5.805 5.616 14.385t-5.801 14.196q-5.8 5.615-14.375 5.615Zm149.602 0q-8.58 0-14.195-5.804Q760-171.608 760-180.189q0-8.58 5.804-14.195Q771.609-200 780.189-200t14.196 5.804Q800-188.391 800-179.811t-5.804 14.196Q788.392-160 779.811-160ZM365.769-310.384q-22.846 0-39.115-16.27-16.27-16.269-16.27-39.115V-595q0-22.25 16.27-38.817 16.269-16.568 39.115-16.568H595q22.25 0 38.817 16.568Q650.385-617.25 650.385-595v229.231q0 22.846-16.568 39.115-16.567 16.27-38.817 16.27H365.769Zm0-30.77H595q10 0 17.308-6.923 7.307-6.923 7.307-17.692V-595q0-10-7.307-17.308Q605-619.615 595-619.615H365.769q-10.769 0-17.692 7.307Q341.154-605 341.154-595v229.231q0 10.769 6.923 17.692t17.692 6.923Z"/></svg>

<svg xmlns="http://www.w3.org/2000/svg" width="48" height="48" viewBox="0 -960 960 960"><path d="M179.81-760q-8.58 0-14.19-5.8-5.62-5.81-5.62-14.39 0-8.58 5.8-14.19 5.81-5.62 14.39-5.62 8.58 0 14.19 5.8 5.62 5.81 5.62 14.39 0 8.58-5.8 14.19-5.81 5.62-14.39 5.62Zm150.4 0q-9.36 0-14.59-5.8-5.24-5.81-5.24-14.39 0-8.58 5.41-14.19 5.41-5.62 14.39-5.62 8.97 0 14.59 5.8 5.61 5.81 5.61 14.39 0 8.58-5.8 14.19-5.8 5.62-14.37 5.62Zm149.6 0q-8.58 0-14.19-5.8-5.62-5.81-5.62-14.39 0-8.58 5.8-14.19 5.81-5.62 14.39-5.62 8.58 0 14.19 5.8 5.62 5.81 5.62 14.39 0 8.58-5.8 14.19-5.81 5.62-14.39 5.62Zm150.4 0q-9.36 0-14.59-5.8-5.24-5.81-5.24-14.39 0-8.58 5.41-14.19 5.41-5.62 14.39-5.62 8.97 0 14.59 5.8 5.61 5.81 5.61 14.39 0 8.58-5.8 14.19-5.8 5.62-14.37 5.62Zm149.6 0q-8.58 0-14.19-5.8-5.62-5.81-5.62-14.39 0-8.58 5.8-14.19 5.81-5.62 14.39-5.62 8.58 0 14.19 5.8 5.62 5.81 5.62 14.39 0 8.58-5.8 14.19-5.81 5.62-14.39 5.62Zm-600 149.62q-8.58 0-14.19-5.41-5.62-5.41-5.62-14.39 0-8.97 5.8-14.59 5.81-5.61 14.39-5.61 8.58 0 14.19 5.8 5.62 5.8 5.62 14.37 0 9.36-5.8 14.59-5.81 5.24-14.39 5.24Zm600 0q-8.58 0-14.19-5.41-5.62-5.41-5.62-14.39 0-8.97 5.8-14.59 5.81-5.61 14.39-5.61 8.58 0 14.19 5.8 5.62 5.8 5.62 14.37 0 9.36-5.8 14.59-5.81 5.24-14.39 5.24ZM179.81-460q-8.58 0-14.19-5.8-5.62-5.81-5.62-14.39 0-8.58 5.8-14.19 5.81-5.62 14.39-5.62 8.58 0 14.19 5.8 5.62 5.81 5.62 14.39 0 8.58-5.8 14.19-5.81 5.62-14.39 5.62Zm600 0q-8.58 0-14.19-5.8-5.62-5.81-5.62-14.39 0-8.58 5.8-14.19 5.81-5.62 14.39-5.62 8.58 0 14.19 5.8 5.62 5.81 5.62 14.39 0 8.58-5.8 14.19-5.81 5.62-14.39 5.62Zm-600 149.62q-8.58 0-14.19-5.41-5.62-5.41-5.62-14.39 0-8.97 5.8-14.59 5.81-5.61 14.39-5.61 8.58 0 14.19 5.8 5.62 5.8 5.62 14.37 0 9.36-5.8 14.59-5.81 5.24-14.39 5.24Zm600 0q-8.58 0-14.19-5.41-5.62-5.41-5.62-14.39 0-8.97 5.8-14.59 5.81-5.61 14.39-5.61 8.58 0 14.19 5.8 5.62 5.8 5.62 14.37 0 9.36-5.8 14.59-5.81 5.24-14.39 5.24ZM179.81-160q-8.58 0-14.19-5.8-5.62-5.81-5.62-14.39 0-8.58 5.8-14.19 5.81-5.62 14.39-5.62 8.58 0 14.19 5.8 5.62 5.81 5.62 14.39 0 8.58-5.8 14.19-5.81 5.62-14.39 5.62Zm150.4 0q-9.36 0-14.59-5.8-5.24-5.81-5.24-14.39 0-8.58 5.41-14.19 5.41-5.62 14.39-5.62 8.97 0 14.59 5.8 5.61 5.81 5.61 14.39 0 8.58-5.8 14.19-5.8 5.62-14.37 5.62Zm149.6 0q-8.58 0-14.19-5.8-5.62-5.81-5.62-14.39 0-8.58 5.8-14.19 5.81-5.62 14.39-5.62 8.58 0 14.19 5.8 5.62 5.81 5.62 14.39 0 8.58-5.8 14.19-5.81 5.62-14.39 5.62Zm150.4 0q-9.36 0-14.59-5.8-5.24-5.81-5.24-14.39 0-8.58 5.41-14.19 5.41-5.62 14.39-5.62 8.97 0 14.59 5.8 5.61 5.81 5.61 14.39 0 8.58-5.8 14.19-5.8 5.62-14.37 5.62Zm149.6 0q-8.58 0-14.19-5.8-5.62-5.81-5.62-14.39 0-8.58 5.8-14.19 5.81-5.62 14.39-5.62 8.58 0 14.19 5.8 5.62 5.81 5.62 14.39 0 8.58-5.8 14.19-5.81 5.62-14.39 5.62ZM365.77-310.38q-22.85 0-39.12-16.27-16.27-16.27-16.27-39.12V-595q0-22.25 16.27-38.82 16.27-16.56 39.12-16.56H595q22.25 0 38.82 16.56 16.56 16.57 16.56 38.82v229.23q0 22.85-16.56 39.12-16.57 16.27-38.82 16.27H365.77Zm0-30.77H595q10 0 17.31-6.93 7.31-6.92 7.31-17.69V-595q0-10-7.31-17.31-7.31-7.31-17.31-7.31H365.77q-10.77 0-17.69 7.31-6.93 7.31-6.93 17.31v229.23q0 10.77 6.93 17.69 6.92 6.93 17.69 6.93Z"/></svg>
